svgs/sharp-solid/chart-tree-map.svg

<svg xmlns="http://www.w3.org/2000/svg" viewBox="0 0 512 512"><!--! Font Awesome Pro 6.6.0 by @fontawesome - https://fontawesome.com License - https://fontawesome.com/license (Commercial License) Copyright 2024 Fonticons, Inc. --><path d="M0 32l224 0 0 208L0 240 0 32zM0 272l224 0 0 208L0 480 0 272zM512 32l0 128-256 0 0-128 256 0zM256 192l256 0 0 128-256 0 0-128zM512 352l0 128-256 0 0-128 256 0z"/></svg>

<svg xmlns="http://www.w3.org/2000/svg" viewBox="0 0 512 512"><!--! Font Awesome Pro 6.4.0 by @fontawesome - https://fontawesome.com License - https://fontawesome.com/license (Commercial License) Copyright 2023 Fonticons, Inc. --><path d="M0 32H224V240H0V32zM0 272H224V480H0V272zM512 32V160H256V32H512zM256 192H512V320H256V192zM512 352V480H256V352H512z"/></svg>
